src/assets/logo.svg

<svg width="185" height="60" viewBox="0 0 185 60" fill="none" xmlns="http://www.w3.org/2000/svg">
<path d="M61.0032 24.7694H58V8.23614H61.0032V24.7694Z" fill="#0071DC"/>
<path d="M83.7927 24.7694H80.7664V14.9232L75.4416 24.2736C75.3107 24.5119 75.1258 24.6925 74.8871 24.8155C74.6561 24.9385 74.4059 25 74.1363 25C73.8745 25 73.6281 24.9385 73.3971 24.8155C73.1738 24.6925 72.9967 24.5119 72.8658 24.2736L67.5178 14.9232V24.7694H64.5146V9.51591C64.5146 9.17003 64.6147 8.86258 64.8149 8.59355C65.0228 8.32453 65.2923 8.1439 65.6235 8.05167C65.7852 8.01324 65.9469 8.00171 66.1086 8.01708C66.2703 8.02477 66.4243 8.05936 66.5706 8.12085C66.7246 8.17465 66.8632 8.25536 66.9864 8.36297C67.1097 8.46289 67.2136 8.58587 67.2983 8.73191L74.1363 20.5957L80.9744 8.73191C81.1515 8.43983 81.394 8.2323 81.702 8.10932C82.0178 7.98634 82.345 7.96712 82.6839 8.05167C83.0073 8.1439 83.2729 8.32453 83.4809 8.59355C83.6888 8.86258 83.7927 9.17003 83.7927 9.51591V24.7694Z" fill="#0071DC"/>
<path d="M103.799 15.1538C103.799 15.8379 103.714 16.449 103.544 16.987C103.375 17.5251 103.144 18.0016 102.851 18.4167C102.566 18.824 102.235 19.1738 101.858 19.4659C101.481 19.7579 101.084 19.9962 100.668 20.1807C100.26 20.3651 99.8444 20.4997 99.4208 20.5842C99.005 20.6688 98.6123 20.711 98.2427 20.711H91.4508V17.7134H98.2427C98.6277 17.6826 98.9742 17.6058 99.2822 17.4828C99.5979 17.3521 99.8675 17.1792 100.091 16.964C100.314 16.7487 100.487 16.4912 100.611 16.1915C100.734 15.884 100.795 15.5381 100.795 15.1538V13.7933C100.757 13.4167 100.676 13.0708 100.553 12.7557C100.43 12.4406 100.26 12.1715 100.045 11.9486C99.8367 11.7257 99.5825 11.5528 99.2822 11.4298C98.9819 11.2991 98.6354 11.2338 98.2427 11.2338H91.4739C91.0735 11.2338 90.7693 11.3376 90.5614 11.5451C90.3535 11.7526 90.2496 12.0524 90.2496 12.4444V24.7694H87.2464V12.4444C87.2464 11.6758 87.385 11.0224 87.6622 10.4844C87.9471 9.94635 88.2975 9.51207 88.7133 9.18156C89.1368 8.85105 89.595 8.61277 90.0879 8.46673C90.5807 8.313 91.035 8.23614 91.4508 8.23614H98.2427C98.9203 8.23614 99.5286 8.32453 100.068 8.50132C100.607 8.67042 101.08 8.90101 101.488 9.19309C101.904 9.47748 102.255 9.80799 102.54 10.1846C102.832 10.5613 103.071 10.9571 103.256 11.3722C103.448 11.7795 103.587 12.1946 103.671 12.6173C103.756 13.0324 103.799 13.4244 103.799 13.7933V15.1538Z" fill="#0071DC"/>
<path d="M119.993 18.0131H110.51V14.9924H119.993V18.0131ZM121.344 24.7694H110.51C110.094 24.7694 109.639 24.6964 109.147 24.5504C108.654 24.4043 108.196 24.166 107.772 23.8355C107.356 23.4973 107.006 23.063 106.721 22.5327C106.444 21.9946 106.305 21.3375 106.305 20.5612V9.7465C106.305 9.53897 106.344 9.34297 106.421 9.1585C106.498 8.97403 106.602 8.81261 106.732 8.67426C106.871 8.53591 107.033 8.4283 107.218 8.35144C107.402 8.27457 107.603 8.23614 107.818 8.23614H121.344V11.2338H109.308V20.5612C109.308 20.9532 109.412 21.2529 109.62 21.4605C109.828 21.668 110.132 21.7717 110.533 21.7717H121.344V24.7694Z" fill="#0071DC"/>
<path d="M140.807 13.7933C140.807 14.4774 140.722 15.0885 140.553 15.6265C140.383 16.1646 140.152 16.6411 139.86 17.0562C139.575 17.4636 139.244 17.8133 138.866 18.1054C138.489 18.3975 138.093 18.6396 137.677 18.8317C137.269 19.0162 136.853 19.1507 136.429 19.2353C136.013 19.3198 135.621 19.3621 135.251 19.3621L141.523 24.7694H136.88L130.619 19.3621H128.459V16.3644H135.251C135.628 16.3337 135.971 16.2568 136.279 16.1338C136.595 16.0032 136.864 15.8302 137.088 15.615C137.319 15.3998 137.496 15.1423 137.619 14.8425C137.742 14.5351 137.804 14.1854 137.804 13.7933V11.9025C137.804 11.7334 137.781 11.6066 137.735 11.522C137.696 11.4298 137.642 11.3645 137.573 11.326C137.511 11.2799 137.442 11.253 137.365 11.2453C137.296 11.2376 137.23 11.2338 137.169 11.2338H127.258V24.7694H124.255V9.7465C124.255 9.53897 124.293 9.34297 124.37 9.1585C124.447 8.97403 124.551 8.81261 124.682 8.67426C124.821 8.53591 124.983 8.4283 125.167 8.35144C125.352 8.27457 125.552 8.23614 125.768 8.23614H137.169C137.838 8.23614 138.404 8.35912 138.866 8.60508C139.329 8.84336 139.702 9.14697 139.987 9.51591C140.28 9.87717 140.487 10.2692 140.611 10.6919C140.742 11.1147 140.807 11.5105 140.807 11.8795V13.7933Z" fill="#0071DC"/>
<path d="M146.848 24.7694H143.845V8.23614H146.848V24.7694Z" fill="#0071DC"/>
<path d="M166.138 13.7703C166.138 14.4544 166.049 15.0654 165.872 15.6035C165.703 16.1415 165.475 16.6181 165.191 17.0331C164.906 17.4405 164.571 17.7902 164.186 18.0823C163.808 18.3744 163.416 18.6165 163.007 18.8087C162.599 18.9931 162.184 19.1277 161.76 19.2122C161.344 19.2968 160.951 19.339 160.582 19.339H159.369V24.7694H156.343V19.339H155.141C154.772 19.339 154.375 19.2968 153.952 19.2122C153.536 19.1277 153.12 18.9931 152.704 18.8087C152.296 18.6165 151.903 18.3744 151.526 18.0823C151.149 17.7902 150.814 17.4405 150.521 17.0331C150.236 16.6181 150.005 16.1415 149.828 15.6035C149.659 15.0577 149.574 14.4467 149.574 13.7703V8.23614H152.577V13.7703C152.577 14.1623 152.639 14.5159 152.762 14.831C152.885 15.1385 153.058 15.4036 153.282 15.6265C153.505 15.8494 153.775 16.0224 154.09 16.1454C154.414 16.2607 154.772 16.3183 155.165 16.3183H160.582C160.867 16.2722 161.159 16.2145 161.46 16.1454C161.76 16.0685 162.033 15.9417 162.28 15.7649C162.526 15.5881 162.73 15.3421 162.892 15.027C163.054 14.7119 163.135 14.293 163.135 13.7703V8.23614H166.138V13.7703Z" fill="#0071DC"/>
<path d="M185 24.7694H181.997V20.711H171.439V24.7694H168.436V16.5028C168.436 15.296 168.644 14.1854 169.06 13.1708C169.476 12.1562 170.053 11.2838 170.793 10.5536C171.532 9.82337 172.406 9.25458 173.415 8.8472C174.423 8.43983 175.525 8.23614 176.718 8.23614H183.487C183.695 8.23614 183.891 8.27457 184.076 8.35144C184.261 8.4283 184.422 8.53591 184.561 8.67426C184.7 8.81261 184.807 8.97403 184.884 9.1585C184.961 9.34297 185 9.53897 185 9.7465V24.7694ZM171.439 17.7134H181.997V11.2338H176.718C176.626 11.2338 176.429 11.2492 176.129 11.2799C175.836 11.303 175.494 11.3683 175.101 11.4759C174.716 11.5835 174.308 11.7488 173.877 11.9717C173.445 12.1946 173.049 12.502 172.687 12.894C172.325 13.2861 172.025 13.778 171.786 14.3698C171.555 14.954 171.439 15.665 171.439 16.5028V17.7134Z" fill="#0071DC"/>
<path d="M73.4896 45.9016C73.4896 46.4937 73.4129 47.0281 73.2595 47.5049C73.1137 47.974 72.9181 48.3893 72.6726 48.7507C72.4271 49.1121 72.1394 49.4197 71.8096 49.6735C71.4797 49.9273 71.1383 50.1349 70.7854 50.2964C70.4326 50.4579 70.072 50.5771 69.7038 50.654C69.3432 50.7309 69.0019 50.7693 68.6797 50.7693H57.1381V47.7702H68.6797C69.255 47.7702 69.7 47.601 70.0145 47.2627C70.3367 46.9243 70.4978 46.4706 70.4978 45.9016C70.4978 45.6247 70.4556 45.3709 70.3712 45.1402C70.2868 44.9096 70.1641 44.7096 70.003 44.5404C69.8495 44.3713 69.6578 44.2405 69.4276 44.1482C69.2051 44.056 68.9558 44.0098 68.6797 44.0098H61.7984C61.3151 44.0098 60.7935 43.9252 60.2335 43.7561C59.6735 43.5792 59.1518 43.2985 58.6685 42.914C58.1929 42.5295 57.794 42.0258 57.4718 41.4029C57.1573 40.78 57 40.0187 57 39.119C57 38.2193 57.1573 37.4618 57.4718 36.8466C57.794 36.2237 58.1929 35.72 58.6685 35.3355C59.1518 34.9434 59.6735 34.6627 60.2335 34.4935C60.7935 34.3166 61.3151 34.2282 61.7984 34.2282H71.9822V37.2273H61.7984C61.2308 37.2273 60.7858 37.4003 60.4636 37.7463C60.1491 38.0924 59.9918 38.55 59.9918 39.119C59.9918 39.6958 60.1491 40.1533 60.4636 40.4917C60.7858 40.8223 61.2308 40.9877 61.7984 40.9877H68.7027C69.0249 40.9954 69.3662 41.0415 69.7268 41.1261C70.0874 41.203 70.4441 41.326 70.797 41.4952C71.1575 41.6644 71.4989 41.8797 71.8211 42.1412C72.1433 42.3949 72.4271 42.7025 72.6726 43.064C72.9258 43.4254 73.1252 43.8406 73.271 44.3097C73.4167 44.7788 73.4896 45.3094 73.4896 45.9016Z" fill="#FFC220"/>
<path d="M78.99 40.9877H89.4959V34.2282H92.4877V50.7693H89.4959V44.0098H78.99V50.7693H75.9981V34.2282H78.99V40.9877Z" fill="#FFC220"/>
<path d="M99.0122 50.7693H96.0204V34.2282H99.0122V50.7693Z" fill="#FFC220"/>
<path d="M119 49.4889C119 49.7042 118.958 49.9042 118.873 50.0887C118.797 50.2733 118.689 50.4348 118.551 50.5732C118.421 50.7039 118.264 50.8078 118.079 50.8847C117.895 50.9616 117.7 51 117.493 51C117.308 51 117.121 50.9654 116.929 50.8962C116.745 50.827 116.58 50.7155 116.434 50.5617L105.502 39.119V50.7693H102.51V35.5086C102.51 35.201 102.595 34.9241 102.764 34.6781C102.94 34.4243 103.162 34.2359 103.431 34.1128C103.715 33.9975 104.006 33.9706 104.305 34.0321C104.605 34.0859 104.862 34.2243 105.076 34.4474L116.008 45.8785V34.2282H119V49.4889Z" fill="#FFC220"/>
<path d="M1.21803 39.5C-3.527 24.2844 6.062 8.47056 21.8129 6.23587C28.6668 5.28284 34.7958 7.35321 40.8589 10.0151C41.6168 10.3438 42.2428 11.001 42.9678 11.5268C42.7042 11.7569 42.6383 11.8883 42.5394 11.8883C41.9792 11.9869 41.3861 12.0855 40.793 12.1512C41.1554 12.7099 41.485 13.2686 41.8804 13.7944C42.0451 13.9916 42.3417 14.0901 42.5724 14.2545C43.8904 15.2075 43.9563 15.4047 44.2529 17.8037C43.8245 17.7708 43.4291 17.7051 42.7042 17.6394C44.1211 20.597 47.2185 21.9115 46.9879 25.1979C46.9549 25.8551 46.8231 26.0523 46.5924 26.1509C46.1311 25.1979 44.9119 23.1932 44.9119 23.2918C45.505 25.5593 44.9119 27.4654 44.9119 29.6344C44.7801 29.0757 44.7472 28.517 44.5165 28.0569C44.0881 27.3011 43.6598 26.2166 43.0337 26.0194C40.9577 25.4608 39.9692 24.0805 39.2442 22.273C39.0795 21.8458 38.6841 21.4515 38.2886 21.1886C33.6754 18.198 28.9634 15.8647 23.2957 18.3623C22.2412 18.8224 21.1538 19.1182 20.0005 19.3482C20.5936 18.9539 21.1868 18.5267 22.1753 17.8694C21.3845 17.8694 21.022 17.7708 20.7255 17.8694C17.8257 19.1511 14.8271 20.2355 12.1251 21.8787C9.15944 23.6533 8.73107 27.0382 8.43451 30.1273C7.44596 40.1834 15.1896 47.2161 23.79 48.3335C28.6668 48.9578 29.7277 48.887 34.4397 46.6523C34.5386 46.7838 35.2863 46.3858 35.3851 46.5172C33.9682 47.3717 32.3903 48.7607 30.8416 49.3193C26.3363 51.6494 20.1236 51.2163 17.6926 50.4339C15.2616 49.6515 12.9656 48.3335 10.2644 45.3017C12.1251 48.6782 14.8271 51.6855 21.6151 53C19.3744 52.5728 17.7598 52.9014 13.8386 51.2911C8.76403 48.432 4.37251 44.3895 2 39C1.83524 38.6714 1.5146 37.1864 1.21803 36.8906C1.08623 37.0221 1.34984 39.4014 1.21803 39.5Z" fill="#0071DC"/>
</svg>

<svg xmlns="http://www.w3.org/2000/svg" width="185" height="60" fill="none"><path fill="#0071DC" d="M61.003 24.77H58V8.235h3.003zM83.793 24.77h-3.027v-9.847l-5.324 9.35a1.3 1.3 0 0 1-.555.543 1.6 1.6 0 0 1-.75.184 1.55 1.55 0 0 1-.74-.184 1.34 1.34 0 0 1-.531-.542l-5.348-9.35v9.845h-3.003V9.516q0-.519.3-.922.311-.404.809-.542a1.5 1.5 0 0 1 .485-.035q.242.011.462.104.23.08.415.242.186.15.312.369l6.838 11.864 6.838-11.864q.266-.438.728-.623.474-.184.982-.057.485.138.797.542.312.403.312.922zM103.799 15.154q0 1.026-.255 1.833a5.1 5.1 0 0 1-.693 1.43 4.8 4.8 0 0 1-.993 1.049q-.566.438-1.19.715a5.8 5.8 0 0 1-1.247.403 6 6 0 0 1-1.178.127H91.45v-2.998h6.792q.577-.045 1.04-.23.473-.196.808-.519a2.3 2.3 0 0 0 .52-.772q.184-.462.184-1.038v-1.36a4 4 0 0 0-.242-1.038 2.4 2.4 0 0 0-.508-.807 2.1 2.1 0 0 0-.763-.52q-.45-.195-1.04-.195h-6.768q-.6 0-.913.311-.312.311-.311.9v12.324h-3.004V12.444q0-1.153.416-1.96a4.1 4.1 0 0 1 1.051-1.302q.636-.496 1.375-.715.74-.23 1.363-.23h6.792q1.016 0 1.825.264.808.255 1.42.692.624.426 1.052.992.438.564.716 1.187.288.612.415 1.245.128.622.128 1.176zM119.993 18.013h-9.483v-3.02h9.483zm1.351 6.756H110.51a4.8 4.8 0 0 1-1.363-.219 4.1 4.1 0 0 1-1.375-.715 4.2 4.2 0 0 1-1.051-1.302q-.416-.807-.416-1.972V9.747q0-.312.116-.588a1.6 1.6 0 0 1 .311-.485q.208-.207.486-.323.277-.115.6-.115h13.526v2.998h-12.036v9.327q0 .588.312.9.312.31.913.31h10.811zM140.807 13.793q0 1.026-.254 1.834a5.2 5.2 0 0 1-.693 1.43 4.8 4.8 0 0 1-.994 1.048 6 6 0 0 1-1.189.727 5.8 5.8 0 0 1-1.248.403 6 6 0 0 1-1.178.127l6.272 5.407h-4.643l-6.261-5.407h-2.16v-2.998h6.792q.566-.045 1.028-.23.474-.196.809-.519.346-.323.531-.773.185-.46.185-1.049v-1.89q0-.254-.069-.381a.4.4 0 0 0-.162-.196.4.4 0 0 0-.208-.08 2 2 0 0 0-.196-.012h-9.911v13.535h-3.003V9.747q0-.312.115-.588.115-.277.312-.485a1.5 1.5 0 0 1 1.086-.438h11.401q1.004 0 1.697.37.694.356 1.121.91.439.542.624 1.176.196.634.196 1.188zM146.848 24.77h-3.003V8.235h3.003zM166.138 13.77q0 1.026-.266 1.834a5.4 5.4 0 0 1-.681 1.43q-.428.61-1.005 1.048-.566.438-1.179.727a5.8 5.8 0 0 1-1.247.403 6 6 0 0 1-1.178.127h-1.213v5.43h-3.026v-5.43h-1.202a6.1 6.1 0 0 1-2.437-.53 6.3 6.3 0 0 1-1.178-.727 5 5 0 0 1-1.005-1.049 5.6 5.6 0 0 1-.693-1.43 6.2 6.2 0 0 1-.254-1.833V8.236h3.003v5.534q0 .588.185 1.061.184.462.52.796.335.333.808.518.486.174 1.075.173h5.417q.427-.07.878-.173.45-.114.82-.38t.612-.738q.243-.473.243-1.257V8.236h3.003zM185 24.77h-3.003V20.71h-10.558v4.058h-3.003v-8.266q0-1.81.624-3.332a7.8 7.8 0 0 1 1.733-2.617 7.9 7.9 0 0 1 2.622-1.707q1.513-.61 3.303-.61h6.769a1.52 1.52 0 0 1 1.074.437q.208.208.323.485.116.276.116.587zm-13.561-7.057h10.558v-6.48h-5.279q-.138 0-.589.047a5.7 5.7 0 0 0-1.028.196 6.5 6.5 0 0 0-1.224.496 4.3 4.3 0 0 0-1.19.922q-.543.588-.901 1.476-.347.876-.347 2.133z"/><path fill="#FFC220" d="M73.49 45.902a5.2 5.2 0 0 1-.23 1.603q-.22.703-.587 1.246a4 4 0 0 1-.863.922 5.3 5.3 0 0 1-1.025.623q-.528.243-1.081.358-.54.115-1.024.115H57.138V47.77H68.68q.863 0 1.334-.507.484-.508.484-1.361 0-.415-.127-.762a1.7 1.7 0 0 0-.368-.6q-.23-.254-.575-.392a1.9 1.9 0 0 0-.748-.138h-6.882a5.4 5.4 0 0 1-1.565-.254 4.8 4.8 0 0 1-1.564-.842q-.714-.577-1.197-1.511Q57 40.469 57 39.119t.472-2.272q.482-.935 1.197-1.511a4.6 4.6 0 0 1 1.565-.843 5.2 5.2 0 0 1 1.564-.265h10.184v3H61.798q-.85 0-1.334.518-.472.52-.472 1.373 0 .865.472 1.373.483.495 1.334.496h6.905q.483.01 1.024.138.54.115 1.07.37.54.253 1.024.645.483.381.852.923.38.542.598 1.246.219.704.219 1.592M78.99 40.988h10.506v-6.76h2.992V50.77h-2.992v-6.76H78.99v6.76h-2.992V34.23h2.992zM99.012 50.77H96.02V34.227h2.992zM119 49.489q0 .323-.127.6a1.431 1.431 0 0 1-.794.796 1.5 1.5 0 0 1-.586.115q-.277 0-.564-.104a1.3 1.3 0 0 1-.495-.334l-10.932-11.443v11.65h-2.992V35.51q0-.462.254-.83.264-.382.667-.566a1.5 1.5 0 0 1 .874-.08q.45.08.771.414l10.932 11.432v-11.65H119z"/><path fill="#0071DC" d="M1.218 39.5C-3.527 24.284 6.062 8.47 21.813 6.236c6.854-.953 12.983 1.117 19.046 3.78.758.328 1.384.985 2.109 1.51-.264.23-.33.362-.429.362-.56.099-1.153.197-1.746.263.362.559.692 1.118 1.087 1.643.165.198.462.296.692.46 1.318.954 1.384 1.15 1.68 3.55-.428-.033-.823-.099-1.548-.165 1.417 2.958 4.514 4.273 4.284 7.559-.033.657-.165.854-.396.953-.46-.953-1.68-2.958-1.68-2.86.593 2.268 0 4.174 0 6.343-.132-.558-.165-1.117-.395-1.577-.429-.756-.857-1.84-1.483-2.038-2.076-.558-3.065-1.938-3.79-3.746-.164-.427-.56-.822-.955-1.084-4.614-2.991-9.326-5.324-14.993-2.827-1.055.46-2.142.756-3.296.986.594-.394 1.187-.821 2.175-1.479-.79 0-1.153-.098-1.45 0-2.9 1.282-5.898 2.366-8.6 4.01-2.966 1.774-3.394 5.16-3.69 8.248-.989 10.056 6.755 17.09 15.355 18.207 4.877.624 5.938.553 10.65-1.682.099.132.846-.266.945-.135-1.417.855-2.995 2.244-4.543 2.802-4.506 2.33-10.718 1.897-13.15 1.115-2.43-.782-4.726-2.1-7.428-5.132 1.861 3.376 4.563 6.383 11.351 7.698-2.24-.427-3.855-.099-7.776-1.709C8.764 48.432 4.373 44.39 2 39c-.165-.329-.485-1.814-.782-2.11-.132.132.132 2.511 0 2.61"/></svg>
